;FLAVOR:Marlin
;TIME:84
;Filament used: 0.0922954m
;Layer height: 0.4
;MINX:87.298
;MINY:87.927
;MINZ:0.3
;MAXX:112.693
;MAXY:112.014
;MAXZ:7.5
;Generated with Cura_SteamEngine 5.2.1
M140 S60
M105
M190 S60
M104 S200
M105
M109 S200
M82 ;absolute extrusion mode
G21 ;metric values
G90 ;absolute positioning
M82 ;set extruder to absolute mode
M107 ;start with the fan off
G28 X0 Y0 ;move X/Y to min endstops
G28 Z0 ;move Z to min endstops
G1 Z15.0 F9000 ;move the platform down 15mm
G92 E0 ;zero the extruded length
G1 F200 E3 ;extrude 3mm of feed stock
G92 E0 ;zero the extruded length again
G1 F9000
;Put printing message on LCD screen
M117 Printing...
G92 E0
G92 E0
G1 F1500 E-6.5
;LAYER_COUNT:20
;LAYER:0
M107
G0 F3600 X89.624 Y90.169 Z0.3
;TYPE:SKIRT

G1 F1800 X93.441 Y93.723 E41.09433
G1 X93.816 Y93.464 E41.11707
G1 X94.231 Y93.276 E41.1398
G1 X94.672 Y93.162 E41.16252
G1 X95.097 Y93.127 E41.1838
G1 X104.903 Y93.127 E41.67302
G1 X105.357 Y93.167 E41.69576
G1 X105.797 Y93.285 E41.71849
G1 X106.209 Y93.479 E41.74121
G1 X106.582 Y93.742 E41.76398
G1 X106.903 Y94.065 E41.78669
G1 X107.162 Y94.44 E41.80943
G1 X107.352 Y94.854 E41.83216
G1 X107.467 Y95.295 E41.8549
G1 X107.503 Y95.749 E41.87762
G1 X107.459 Y96.202 E41.90032
G1 X107.337 Y96.641 E41.92305
G1 X107.155 Y97.027 E41.94435
G1 X102.252 Y105.519 E42.43356
G1 X101.99 Y105.892 E42.4563
G1 X101.667 Y106.214 E42.47905
G1 X101.294 Y106.474 E42.50174
G1 X100.88 Y106.666 E42.5245
G1 X100.439 Y106.782 E42.54725
G1 X99.985 Y106.819 E42.56998
G1 X99.532 Y106.776 E42.59268
G1 X99.092 Y106.655 E42.61545
G1 X98.681 Y106.46 E42.63814
G1 X98.31 Y106.195 E42.66089
G1 X97.991 Y105.87 E42.68361
G1 X97.748 Y105.519 E42.70491
G1 X92.845 Y97.027 E43.19412
G1 X92.653 Y96.614 E43.21684
G1 X92.536 Y96.174 E43.23956
G1 X92.497 Y95.72 E43.26229
G1 X92.538 Y95.266 E43.28503
G1 X92.658 Y94.826 E43.30779
G1 X92.853 Y94.414 E43.33053
G1 X93.116 Y94.043 E43.35322
G0 F3600 X93.308 Y94.447
G1 F1800 X93.583 Y94.131 E43.37412
G1 X93.913 Y93.873 E43.39501
G1 X94.286 Y93.682 E43.41592
G1 X94.689 Y93.565 E43.43686
G1 X95.097 Y93.527 E43.4573
G1 X104.903 Y93.527 E43.94652
G1 X105.32 Y93.567 E43.96742
G1 X105.722 Y93.685 E43.98833
G1 X106.094 Y93.878 E44.00923
G1 X106.423 Y94.137 E44.03012
G1 X106.697 Y94.454 E44.05103
G1 X106.906 Y94.817 E44.07193
G1 X107.042 Y95.214 E44.09286
G1 X107.101 Y95.629 E44.11377
G1 X107.08 Y96.047 E44.13465
G1 X106.979 Y96.454 E44.15558
G1 X106.808 Y96.827 E44.17605
G1 X101.905 Y105.319 E44.66526
G1 X101.662 Y105.66 E44.68615
G1 X101.359 Y105.949 E44.70704
G1 X101.006 Y106.176 E44.72798
G1 X100.617 Y106.331 E44.74887
G1 X100.205 Y106.409 E44.76979
G1 X99.786 Y106.409 E44.79069
G1 X99.375 Y106.328 E44.81159
G1 X98.986 Y106.171 E44.83252
G1 X98.634 Y105.944 E44.85342
G1 X98.332 Y105.654 E44.87431
G1 X98.095 Y105.319 E44.89478
G1 X93.192 Y96.827 E45.38399
G1 X93.018 Y96.446 E45.40489
G1 X92.919 Y96.039 E45.42579
G1 X92.9 Y95.62 E45.44671
G1 X92.96 Y95.205 E45.46763
G1 X93.097 Y94.809 E45.48854
G1 X93.308 Y94.447 E45.50944
G0 F3600 X93.545 Y94.816
G1 F1800 X93.77 Y94.511 E45.52835
G1 X94.054 Y94.26 E45.54726
G1 X94.384 Y94.074 E45.56616
G1 X94.746 Y93.962 E45.58506
G1 X95.097 Y93.927 E45.60266
G1 X104.903 Y93.927 E46.09188
G1 X105.28 Y93.967 E46.1108
G1 X105.64 Y94.085 E46.1297
G1 X105.967 Y94.275 E46.14857
G1 X106.248 Y94.53 E46.1675
G1 X106.468 Y94.839 E46.18642
G1 X106.62 Y95.186 E46.20532
G1 X106.695 Y95.557 E46.22421
G1 X106.691 Y95.936 E46.24312
G1 X106.607 Y96.306 E46.26205
G1 X106.462 Y96.627 E46.27962
G1 X101.559 Y105.119 E46.76883
G1 X101.336 Y105.425 E46.78772
G1 X101.054 Y105.678 E46.80662
G1 X100.725 Y105.867 E46.82555
G1 X100.364 Y105.982 E46.84445
G1 X99.987 Y106.019 E46.86335
G1 X99.61 Y105.976 E46.88228
G1 X99.251 Y105.856 E46.90117
G1 X98.925 Y105.663 E46.92007
G1 X98.646 Y105.406 E46.93899
G1 X98.441 Y105.119 E46.95659
G1 X93.538 Y96.627 E47.4458
G1 X93.384 Y96.281 E47.4647
G1 X93.306 Y95.91 E47.48361
G1 X93.308 Y95.531 E47.50252
G1 X93.388 Y95.161 E47.52141
G1 X93.545 Y94.816 E47.54032
G0 F3600 X93.826 Y95.139
G1 F1800 X94.002 Y94.855 E47.55698
G1 X94.239 Y94.62 E47.57364
G1 X94.526 Y94.449 E47.5903
G1 X94.919 Y94.327 E47.61083
G1 X104.903 Y94.327 E48.10894
G1 X105.235 Y94.367 E48.12562
G1 X105.547 Y94.484 E48.14224
G1 X105.824 Y94.672 E48.15895
G1 X106.047 Y94.92 E48.17559
G1 X106.206 Y95.214 E48.19226
G1 X106.29 Y95.538 E48.20896
G1 X106.296 Y95.872 E48.22563
G1 X106.205 Y96.271 E48.24604
G1 X101.212 Y104.919 E48.74424
G1 X101.012 Y105.186 E48.76088
G1 X100.754 Y105.399 E48.77758
G1 X100.453 Y105.544 E48.79424
G1 X100.126 Y105.613 E48.81092
G1 X99.793 Y105.604 E48.82754
G1 X99.47 Y105.515 E48.84425
G1 X99.178 Y105.353 E48.86091
G1 X98.878 Y105.075 E48.88132
G1 X93.885 Y96.427 E49.37952
G1 X93.753 Y96.12 E49.39619
G1 X93.698 Y95.79 E49.41288
G1 X93.723 Y95.457 E49.42954
G1 X93.826 Y95.139 E49.44622
G0 F3600 X94.15 Y95.407
G1 F1800 X94.277 Y95.155 E49.46029
G1 X94.469 Y94.949 E49.47434
G1 X94.711 Y94.804 E49.48842
G1 X95.097 Y94.727 E49.50805
G1 X104.903 Y94.727 E49.99728
G1 X105.182 Y94.767 E50.01134
G1 X105.439 Y94.883 E50.02541
G1 X105.654 Y95.066 E50.03949
G1 X105.808 Y95.302 E50.05355
G1 X105.891 Y95.572 E50.06764
G1 X105.895 Y95.854 E50.08172
G1 X105.769 Y96.227 E50.10136
G1 X100.866 Y104.719 E50.59057
G1 X100.692 Y104.941 E50.60464
G1 X100.463 Y105.106 E50.61872
G1 X100.197 Y105.199 E50.63278
G1 X99.915 Y105.215 E50.64687
G1 X99.64 Y105.152 E50.66095
G1 X99.394 Y105.014 E50.67502
G1 X99.134 Y104.719 E50.69464
G1 X94.231 Y96.227 E51.18385
G1 X94.126 Y95.965 E51.19793
G1 X94.098 Y95.684 E51.21202
G1 X94.15 Y95.407 E51.22608
G0 F3600 X94.51 Y95.603
G1 F1800 X94.593 Y95.402 E51.23693
G1 X94.743 Y95.243 E51.24784
G1 X94.982 Y95.127 E51.26109
G1 X104.903 Y95.127 E51.75605
G1 X105.118 Y95.167 E51.76696
G1 X105.304 Y95.28 E51.77782
G1 X105.437 Y95.453 E51.78871
G1 X105.499 Y95.662 E51.79958
G1 X105.479 Y95.929 E51.81294
G1 X100.52 Y104.519 E52.30779
G1 X100.378 Y104.685 E52.31868
G1 X100.186 Y104.789 E52.32958
G1 X99.97 Y104.818 E52.34045
G1 X99.758 Y104.768 E52.35132
G1 X99.536 Y104.617 E52.36471
G1 X94.577 Y96.027 E52.85956
G1 X94.504 Y95.821 E52.87046
G1 X94.51 Y95.603 E52.88134
G0 F3600 X94.898 Y95.705
G1 F1800 X94.95 Y95.591 E52.88759
G1 X95.097 Y95.527 E52.89559
G1 X104.903 Y95.527 E53.38481
G1 X105.022 Y95.566 E53.39106
G1 X105.094 Y95.668 E53.39729
G1 X105.076 Y95.827 E53.40527
G1 X100.173 Y104.319 E53.89449
G1 X100.08 Y104.402 E53.90071
G1 X99.956 Y104.414 E53.90692
G1 X99.827 Y104.319 E53.91491
G1 X94.924 Y95.827 E54.40413
G1 X94.898 Y95.705 E54.41035
G1 F1500 E47.91035
;MESH:testSTL.stl
G0 F3600 X95.806 Y96.136
G0 X96.569 Y96.576
G1 F1500 E54.41035
G0 F3600 X96.138 Y96.327
;TYPE:WALL-INNER
G1 F1800 X100 Y103.015 E54.79565
G1 X103.862 Y96.327 E55.18095
G1 X96.138 Y96.327 E55.5663
G0 F3600 X95.445 Y95.927
;TYPE:WALL-OUTER
G1 F1800 X100 Y103.815 E56.02074
G1 X104.555 Y95.927 E56.47517
G1 X95.445 Y95.927 E56.92967
G0 F3600 X95.545 Y96.1
G0 X95.875 Y96.176
G0 X96.797 Y96.708
;TYPE:SKIN
G1 F1800 X100 Y102.253 E57.24915
G1 X103.201 Y96.708 E57.56858
G1 X96.797 Y96.708 E57.88808
G0 F3600 X100.057 Y101.754
G1 F1800 X99.786 Y101.483 E57.9072
G0 F3600 X100.264 Y101.395
G1 F1800 X99.012 Y100.143 E57.99553
G1 X98.942 Y100.073
G0 F3600 X98.238 Y98.804
G1 F1800 X100.471 Y101.037 E58.15308
G0 F3600 X100.677 Y100.677
G1 F1800 X97.464 Y97.464 E58.37978
G0 F3600 X97.473 Y96.908
G1 F1800 X100.885 Y100.319 E58.62048
G0 F3600 X101.092 Y99.96
G1 F1800 X98.039 Y96.908 E58.83585
G0 F3600 X98.605 Y96.908
G1 F1800 X101.299 Y99.602 E59.02592
G0 F3600 X101.506 Y99.243
G1 F1800 X99.171 Y96.908 E59.19067
G0 F3600 X99.736 Y96.908
G1 F1800 X101.713 Y98.884 E59.33012
G0 F3600 X101.92 Y98.526
G1 F1800 X100.302 Y96.908 E59.44428
G0 F3600 X100.868 Y96.908
G1 F1800 X102.127 Y98.167 E59.53311
G0 F3600 X102.334 Y97.809
G1 F1800 X101.433 Y96.908 E59.59668
G0 F3600 X101.999 Y96.908
G1 F1800 X102.541 Y97.45 E59.63492
G0 F3600 X102.748 Y97.091
G1 F1800 X102.565 Y96.908 E59.64783
G0 F3600 X102.565 Y96.926
;MESH:NONMESH
G0 F600 X102.565 Y96.926 Z0.7
G0 F3600 X96.569 Y96.576
G0 X96.362 Y96.457
;TIME_ELAPSED:45.504110
;LAYER:1
M106 S255
;TYPE:WALL-INNER
;MESH:testSTL.stl
G1 F1661.2 X100 Y102.757 E60.13177
G1 X103.638 Y96.457 E60.6157
G1 X96.362 Y96.457 E61.0997
G0 F5400 X95.669 Y96.057
;TYPE:WALL-OUTER
G1 F1107.5 X100 Y103.557 E61.67581
G1 X104.331 Y96.057 E62.25192
G1 X95.669 Y96.057 E62.82812
G0 F5400 X95.769 Y96.23
G0 X96.1 Y96.306
G0 X97.021 Y96.838
;TYPE:SKIN
G1 F1107.5 X100 Y101.994 E63.22423
G1 X102.977 Y96.838 E63.62027
G1 X97.021 Y96.838 E64.01647
G0 F5400 X97.437 Y97.158
G1 F1107.5 X97.558 Y97.037 E64.02785
G0 F5400 X97.644 Y97.517
G1 F1107.5 X98.123 Y97.037 E64.07296
G0 F5400 X98.689 Y97.037
G1 F1107.5 X97.851 Y97.875 E64.15179
G0 F5400 X98.058 Y98.234
G1 F1107.5 X99.255 Y97.037 E64.2644
G0 F5400 X99.82 Y97.037
G1 F1107.5 X98.265 Y98.592 E64.41069
G0 F5400 X98.473 Y98.951
G1 F1107.5 X100.386 Y97.037 E64.5907
G0 F5400 X100.952 Y97.037
G1 F1107.5 X98.68 Y99.309 E64.80443
G0 F5400 X98.887 Y99.668
G1 F1107.5 X101.517 Y97.037 E65.05189
G0 F5400 X102.083 Y97.037
G1 F1107.5 X99.094 Y100.026 E65.33308
G0 F5400 X99.301 Y100.385
G1 F1107.5 X102.601 Y97.085 E65.64352
G1 X102.671 Y97.015
G0 F5400 X101.829 Y98.422
G1 F1107.5 X99.509 Y100.743 E65.86182
G0 F5400 X99.716 Y101.102
G1 F1107.5 X101.057 Y99.76 E65.98802
G1 X101.127 Y99.69
G0 F5400 X100.285 Y101.098
G1 F1107.5 X99.923 Y101.46 E66.02208
G0 F5400 X99.938 Y101.452
;MESH:NONMESH
G0 F600 X99.938 Y101.452 Z1.1
G0 F5400 X97.075 Y97.075
;TIME_ELAPSED:50.845229
;LAYER:2
;TYPE:FILL
;MESH:testSTL.stl
G1 F1200 X100.783 Y100.783 E66.3709
G1 X100.853 Y100.853
G0 F7200 X100.652 Y100.736
G0 X99.336 Y100.713
G0 X99.216 Y100.782
G1 F1200 X102.923 Y97.075 E66.71963
G1 X102.854 Y97.197
G1 X102.42 Y96.764 E66.76042
G0 F7200 X102.42 Y96.904
G0 X97.578 Y96.904
G0 X97.578 Y96.764
G1 F1200 X97.145 Y97.196 E66.8011
G0 F7200 X96.619 Y96.604
;TYPE:WALL-INNER
G1 F1200 X100 Y102.46 E67.25091
G1 X103.381 Y96.604 E67.70072
G1 X96.619 Y96.604 E68.15053
G0 F7200 X95.926 Y96.204
;TYPE:WALL-OUTER
G1 F600 X100 Y103.26 E68.69251
G1 X104.074 Y96.204 E69.2345
G1 X95.926 Y96.204 E69.7765
G0 F7200 X96.026 Y96.377
G0 X97.484 Y96.904
;MESH:NONMESH
G0 F600 X97.484 Y96.904 Z1.5
G0 F7200 X97.254 Y97.087
;TIME_ELAPSED:55.224387
;LAYER:3
;TYPE:FILL
;MESH:testSTL.stl
G1 F1200 X97.43 Y96.911 E69.79306
G0 F7200 X97.48 Y97.48
G1 F1200 X100.675 Y100.675 E70.09363
G1 X100.745 Y100.745
G0 F7200 X100.543 Y100.627
G0 X99.445 Y100.605
G0 X99.325 Y100.674
G1 F1200 X102.515 Y97.483 E70.39377
G0 F7200 X102.744 Y97.087
G1 F1200 X102.568 Y96.911 E70.41033
G0 F7200 X102.568 Y97.052
G0 X97.307 Y97.002
G0 X96.876 Y96.752
;TYPE:WALL-INNER
G1 F1200 X98.437 Y99.457 E70.61808
G1 X100 Y102.165 E70.82606
G1 X103.124 Y96.752 E71.2418
G1 X96.876 Y96.752 E71.65742
G0 F7200 X96.183 Y96.352
;TYPE:WALL-OUTER
G1 F600 X98.091 Y99.657 E71.91128
G1 X100 Y102.965 E72.16534
G1 X103.817 Y96.352 E72.67326
G1 X96.183 Y96.352 E73.18107
G0 F7200 X96.283 Y96.525
G0 X97.741 Y97.052
;MESH:NONMESH
G0 F600 X97.741 Y97.052 Z1.9
G0 F7200 X97.884 Y97.884
;TIME_ELAPSED:59.283892
;LAYER:4
;TYPE:FILL
;MESH:testSTL.stl
G1 F1200 X100.566 Y100.566 E73.43338
G1 X100.636 Y100.636
G0 F7200 X100.435 Y100.519
G0 X99.553 Y100.497
G0 X99.434 Y100.565
G1 F1200 X102.112 Y97.886 E73.68535
G1 X102.182 Y97.816
G0 F7200 X102.042 Y97.734
G0 X97.563 Y97.15
G0 X97.132 Y96.901
;TYPE:WALL-INNER
G1 F1200 X100 Y101.867 E74.06683
G1 X102.868 Y96.901 E74.4483
G1 X97.132 Y96.901 E74.82986
G0 F7200 X96.439 Y96.501
;TYPE:WALL-OUTER
G1 F600 X100 Y102.667 E75.30351
G1 X103.561 Y96.501 E75.77716
G1 X96.439 Y96.501 E76.25092
G0 F7200 X96.539 Y96.674
G0 X97.997 Y97.2
;MESH:NONMESH
G0 F600 X97.997 Y97.2 Z2.3
G0 F7200 X98.29 Y98.29
;TIME_ELAPSED:62.966998
;LAYER:5
;TYPE:FILL
;MESH:testSTL.stl
G1 F1200 X100.457 Y100.457 E76.45478
G1 X100.527 Y100.527
G0 F7200 X99.542 Y100.457
G1 F1200 X101.708 Y98.291 E76.65854
G1 X101.778 Y98.221
G0 F7200 X101.638 Y98.139
G0 X97.82 Y97.299
G0 X97.389 Y97.05
;TYPE:WALL-INNER
G1 F1200 X100 Y101.571 E77.00583
G1 X102.611 Y97.05 E77.35312
G1 X97.389 Y97.05 E77.70049
G0 F7200 X96.696 Y96.65
;TYPE:WALL-OUTER
G1 F600 X100 Y102.371 E78.13996
G1 X103.304 Y96.65 E78.57943
G1 X96.696 Y96.65 E79.01899
G0 F7200 X96.796 Y96.823
G0 X98.254 Y97.349
;MESH:NONMESH
G0 F600 X98.254 Y97.349 Z2.7
G0 F7200 X98.693 Y98.693
;TIME_ELAPSED:66.338675
;LAYER:6
;TYPE:FILL
;MESH:testSTL.stl
G1 F1200 X100.349 Y100.349 E79.17478
G0 F7200 X99.65 Y100.349
G1 F1200 X101.304 Y98.695 E79.33038
G1 X101.374 Y98.625
G0 F7200 X101.233 Y98.544
G0 X98.077 Y97.447
G0 X97.645 Y97.198
;TYPE:WALL-INNER
G1 F1200 X100 Y101.276 E79.64363
G1 X102.355 Y97.198 E79.95689
G1 X97.645 Y97.198 E80.2702
G0 F7200 X96.952 Y96.798
;TYPE:WALL-OUTER
G1 F600 X100 Y102.076 E80.67563
G1 X103.048 Y96.798 E81.08106
G1 X96.952 Y96.798 E81.48657
G0 F7200 X97.052 Y96.971
G0 X98.511 Y97.498
;MESH:NONMESH
G0 F600 X98.511 Y97.498 Z3.1
G0 F7200 X99.101 Y99.101
;TIME_ELAPSED:69.396906
;LAYER:7
;TYPE:FILL
;MESH:testSTL.stl
G1 F1200 X100.241 Y100.241 E81.59381
G0 F7200 X99.759 Y100.24
G1 F1200 X100.898 Y99.101 E81.70096
G1 X100.968 Y99.031
G0 F7200 X100.828 Y98.949
G0 X98.333 Y97.594
G0 X97.903 Y97.345
;TYPE:WALL-INNER
G1 F1200 X98.951 Y99.161 E81.84044
G1 X100 Y100.979 E81.98006
G1 X102.097 Y97.345 E82.25915
G1 X97.903 Y97.345 E82.53814
G0 F7200 X97.21 Y96.945
;TYPE:WALL-OUTER
G1 F600 X98.604 Y99.361 E82.72369
G1 X100 Y101.779 E82.90941
G1 X102.79 Y96.945 E83.28069
G1 X97.21 Y96.945 E83.65187
G0 F7200 X97.309 Y97.118
G0 X98.593 Y97.945
;MESH:NONMESH
G0 F600 X98.593 Y97.945 Z3.5
G0 F7200 X99.504 Y99.504
;TIME_ELAPSED:72.141120
;LAYER:8
;TYPE:FILL
;MESH:testSTL.stl
G1 F1200 X100.133 Y100.133 E83.71104
G0 F7200 X99.867 Y100.131
G1 F1200 X100.496 Y99.503 E83.77017
G1 X100.566 Y99.433
G0 F7200 X100.425 Y99.35
G0 X98.59 Y97.742
G0 X98.158 Y97.494
;TYPE:WALL-INNER
G1 F1200 X100 Y100.683 E84.01515
G1 X101.842 Y97.494 E84.26012
G1 X98.158 Y97.494 E84.50519
G0 F7200 X97.465 Y97.094
;TYPE:WALL-OUTER
G1 F600 X100 Y101.483 E84.84234
G1 X102.535 Y97.094 E85.1795
G1 X97.465 Y97.094 E85.51676
G0 F7200 X97.565 Y97.267
G0 X98.85 Y98.093
;MESH:NONMESH
G0 F600 X98.85 Y98.093 Z3.9
G0 F7200 X99.91 Y99.91
;TIME_ELAPSED:74.577336
;LAYER:9
;TYPE:FILL
;MESH:testSTL.stl
G1 F1200 X100.024 Y100.024 E85.52748
G1 X99.976 Y100.023
G1 X100.09 Y99.909 E85.53821
G0 F7200 X99.972 Y99.84
G0 X98.846 Y97.891
G0 X98.415 Y97.641
;TYPE:WALL-INNER
G1 F1200 X100 Y100.386 E85.74906
G1 X101.585 Y97.641 E85.95991
G1 X98.415 Y97.641 E86.17078
G0 F7200 X97.722 Y97.241
;TYPE:WALL-OUTER
G1 F600 X100 Y101.186 E86.47381
G1 X102.278 Y97.241 E86.77684
G1 X97.722 Y97.241 E87.07991
G0 F7200 X97.822 Y97.414
G0 X99.28 Y97.941
;MESH:NONMESH
G0 F600 X99.28 Y97.941 Z4.3
G0 F7200 X98.673 Y97.79
;TIME_ELAPSED:76.678405
;LAYER:10
;TYPE:WALL-INNER
;MESH:testSTL.stl
G1 F1200 X100 Y100.089 E87.25649
G1 X101.327 Y97.79 E87.43306
G1 X98.673 Y97.79 E87.60961
G0 F7200 X97.979 Y97.39
;TYPE:WALL-OUTER
G1 F600 X100 Y100.889 E87.8784
G1 X102.021 Y97.39 E88.14719
G1 X97.979 Y97.39 E88.41606
G0 F7200 X98.079 Y97.563
G0 X99.363 Y98.389
;MESH:NONMESH
G0 F600 X99.363 Y98.389 Z4.7
G0 F7200 X98.929 Y97.939
;TIME_ELAPSED:78.470608
;LAYER:11
;TYPE:WALL-INNER
;MESH:testSTL.stl
G1 F1200 X100 Y99.793 E88.55849
G1 X101.071 Y97.939 E88.70092
G1 X98.929 Y97.939 E88.8434
G0 F7200 X98.236 Y97.539
;TYPE:WALL-OUTER
G1 F600 X100 Y100.593 E89.07801
G1 X101.764 Y97.539 E89.31262
G1 X98.236 Y97.539 E89.5473
G0 F7200 X98.336 Y97.712
G0 X99.62 Y98.538
;MESH:NONMESH
G0 F600 X99.62 Y98.538 Z5.1
G0 F7200 X99.186 Y98.087
;TIME_ELAPSED:80.031697
;LAYER:12
;TYPE:WALL-INNER
;MESH:testSTL.stl
G1 F1200 X100 Y99.497 E89.6556
G1 X100.814 Y98.087 E89.7639
G1 X99.186 Y98.087 E89.8722
G0 F7200 X98.493 Y97.687
;TYPE:WALL-OUTER
G1 F600 X100 Y100.298 E90.07274
G1 X101.507 Y97.687 E90.27327
G1 X98.493 Y97.687 E90.47377
G0 F7200 X98.593 Y97.86
G0 X99.876 Y98.686
;MESH:NONMESH
G0 F600 X99.876 Y98.686 Z5.5
G0 F7200 X99.548 Y98.296
;TIME_ELAPSED:81.359506
;LAYER:13
;TYPE:WALL-INNER
;MESH:testSTL.stl
